X: 27132
T: Miss McGuinness
R: reel
M: 4/4
K: Gmajor
dG G2 BG (3Bcd|g3a bage|dG G2 BG (3Bcd|egdB BA A2:|
a2 af g3f|egdg egd2|a2af g3f|edgB BAA2|
a2 af g3f|egdg egdg|b2 bg a2ag|edef g3e||
dGG2 dGBd|dBge dBB2|dGG2 dGBd|(3gfe) dB BAA2:|
(3fga af g3e|dbB2 defg|(3fga af g3e|dBGA BAA2|
(3fga af g 3e|dBB2 dega|bagb afge|dBGA BAA2||

